X:16
T:Mrs. Duff (of Fetteresso's) Strathspey
C:R. Petrie
S:Petrie's Second Collection of Strathspey Reels and Country Dances &c.
Z:Steve Wyrick , 6/5/04
N:Petrie's Second Collection, page 6
L:1/8
M:C
R:Strathspey
K:G
B|G2 B<G            d<GB<G|c<aB<g a<(AA>B) |G2 B<G            d<GB<G|c<Ted>c      BGG  :|
f|(Tg3/2f//g//) d<g B<gd<g|c<aB<g A<(aTa>f)|(Tg3/2f//g//) d>g B<gd<G|c>A d/c/B/A/ B<GG>f|
  (Tg3/2f//g//) d>g B<gd<g|c<aB<g A<(aTa>f)|Tg2 (b/a/g/f/)   g<eTd>c|B<dA<c       B<GG |]
